lib/healthicons/icons/outline/symbols/hazardous.svg

<svg fill="none" height="48" viewBox="0 0 48 48" width="48" xmlns="http://www.w3.org/2000/svg"><g clip-rule="evenodd" fill="#333" fill-rule="evenodd"><path d="m31.9154 37.4402-4.2148-7.44c-.4399.3387-.9305.6184-1.4592.8267-.6916.2723-1.4481.4224-2.2409.4224-.793 0-1.5496-.1501-2.2413-.4226-.5286-.2082-1.0192-.4879-1.459-.8267l-4.2158 7.4402c-.0859.151-.1072.3285-.0593.4945.0477.166.161.3073.3152.3935 4.667 2.61 10.6535 2.61 15.3178 0 .1548-.0858.2685-.227.3166-.3931.0482-.1661.0269-.3438-.0593-.4949zm-10.8483-4.7367-2.5365 4.4764c3.44 1.4746 7.5007 1.4743 10.9385-.0003l-2.5356-4.4759c-.9096.3525-1.9.5456-2.933.5456-1.0332 0-2.0237-.1931-2.9334-.5458z"/><path d="m8.59885 24.063 8.55065.0699c-.0734-.5503-.0703-1.1151.0137-1.677.1099-.7351.3582-1.4653.7546-2.1519.3965-.6867.9048-1.267 1.4866-1.7297.4447-.3537.9322-.6387 1.4455-.8502l-4.3355-7.3712c-.0878-.1498-.2309-.2571-.3986-.2985-.1676-.0417-.3466-.0143-.4984.0762-4.5938 2.7367-7.58705 7.9212-7.65893 13.2656-.00306.177.06236.3461.18218.4708.11969.1247.28428.1952.4582.196zm9.52635-7.0266-2.6085-4.4347c-2.997 2.2417-5.0272 5.7586-5.469 9.4731l5.1441.0421c.1495-.964.4774-1.9183.994-2.8129.5165-.8948 1.1791-1.656 1.9394-2.2676z"/><path d="m31.4857 10.496-4.3358 7.3701c.5133.2116 1.0008.4967 1.4455.8504.5816.4627 1.0899 1.0429 1.4863 1.7295.3965.6867.6448 1.4171.7547 2.1523.0839.5619.087 1.1266.0135 1.6769l8.5514-.0691c.1736-.0011.3381-.0714.4578-.1959.1199-.1244.1857-.2931.1832-.4698-.0732-5.3466-3.0664-10.5311-7.6589-13.2656-.1517-.0911-.3309-.119-.4988-.0776-.1679.0413-.3112.1486-.3989.2988zm1.3221 11.7633 5.1448-.0416c-.4429-3.7164-2.4735-7.2329-5.4695-9.4728l-2.6084 4.4338c.7601.6115 1.4225 1.3726 1.939 2.2673.5166.8947.8446 1.8491.9941 2.8133z"/><path d="m24 26.9999c1.6568 0 3-1.3432 3-3 0-1.6569-1.3432-3-3-3s-3 1.3431-3 3c0 1.6568 1.3432 3 3 3zm0 2c2.7614 0 5-2.2386 5-5s-2.2386-5-5-5-5 2.2386-5 5 2.2386 5 5 5z"/><path d="m24 42c9.9411 0 18-8.0589 18-18s-8.0589-18-18-18-18 8.0589-18 18 8.0589 18 18 18zm0 2c11.0457 0 20-8.9543 20-20s-8.9543-20-20-20-20 8.9543-20 20 8.9543 20 20 20z"/></g></svg>

<svg width="48" height="48" viewBox="0 0 48 48" fill="none" xmlns="http://www.w3.org/2000/svg">
<path fill-rule="evenodd" clip-rule="evenodd" d="M31.9154 37.4402L27.7006 30.0002C27.2607 30.3389 26.7701 30.6186 26.2414 30.8269C25.5498 31.0992 24.7933 31.2493 24.0005 31.2493C23.2076 31.2493 22.4509 31.0992 21.7592 30.8267C21.2306 30.6185 20.74 30.3388 20.3002 30L16.0844 37.4402C15.9985 37.5912 15.9772 37.7687 16.0251 37.9347C16.0728 38.1007 16.1861 38.242 16.3403 38.3282C21.0073 40.9382 26.9938 40.9382 31.6581 38.3282C31.8129 38.2424 31.9266 38.1012 31.9747 37.9351C32.0229 37.769 32.0016 37.5913 31.9154 37.4402ZM21.0671 32.7035L18.5306 37.1799C21.9706 38.6545 26.0313 38.6542 29.4691 37.1796L26.9335 32.7037C26.0239 33.0562 25.0335 33.2493 24.0005 33.2493C22.9674 33.2493 21.9768 33.0562 21.0671 32.7035Z" fill="#333333"/>
<path fill-rule="evenodd" clip-rule="evenodd" d="M8.59885 24.063L17.1495 24.1329C17.0761 23.5826 17.0792 23.0178 17.1632 22.4559C17.2731 21.7208 17.5214 20.9906 17.9178 20.304C18.3143 19.6173 18.8226 19.037 19.4044 18.5743C19.8491 18.2206 20.3366 17.9356 20.8499 17.7241L16.5144 10.3529C16.4266 10.2031 16.2835 10.0958 16.1158 10.0544C15.9482 10.0127 15.7692 10.0401 15.6174 10.1306C11.0236 12.8673 8.03035 18.0518 7.95847 23.3962C7.95541 23.5732 8.02083 23.7423 8.14065 23.867C8.26034 23.9917 8.42493 24.0622 8.59885 24.063ZM18.1252 17.0364L15.5167 12.6017C12.5197 14.8434 10.4895 18.3603 10.0477 22.0748L15.1918 22.1169C15.3413 21.1528 15.6692 20.1986 16.1858 19.304C16.7023 18.4092 17.3649 17.648 18.1252 17.0364Z" fill="#333333"/>
<path fill-rule="evenodd" clip-rule="evenodd" d="M31.4857 10.496L27.1499 17.8661C27.6632 18.0777 28.1507 18.3628 28.5954 18.7165C29.177 19.1792 29.6853 19.7594 30.0817 20.446C30.4782 21.1327 30.7265 21.8631 30.8364 22.5983C30.9203 23.1602 30.9234 23.7249 30.8499 24.2752L39.4013 24.2061C39.5749 24.205 39.7394 24.1347 39.8591 24.0102C39.979 23.8858 40.0448 23.7171 40.0423 23.5404C39.9691 18.1938 36.9759 13.0093 32.3834 10.2748C32.2317 10.1837 32.0525 10.1558 31.8846 10.1972C31.7167 10.2385 31.5734 10.3458 31.4857 10.496ZM32.8078 22.2593L37.9526 22.2177C37.5097 18.5013 35.4791 14.9848 32.4831 12.7449L29.8747 17.1787C30.6348 17.7902 31.2972 18.5513 31.8137 19.446C32.3303 20.3407 32.6583 21.2951 32.8078 22.2593Z" fill="#333333"/>
<path fill-rule="evenodd" clip-rule="evenodd" d="M24 26.9999C25.6568 26.9999 27 25.6568 27 23.9999C27 22.3431 25.6568 20.9999 24 20.9999C22.3432 20.9999 21 22.3431 21 23.9999C21 25.6568 22.3432 26.9999 24 26.9999ZM24 28.9999C26.7614 28.9999 29 26.7613 29 23.9999C29 21.2385 26.7614 18.9999 24 18.9999C21.2386 18.9999 19 21.2385 19 23.9999C19 26.7613 21.2386 28.9999 24 28.9999Z" fill="#333333"/>
<path fill-rule="evenodd" clip-rule="evenodd" d="M24 42C33.9411 42 42 33.9411 42 24C42 14.0589 33.9411 6 24 6C14.0589 6 6 14.0589 6 24C6 33.9411 14.0589 42 24 42ZM24 44C35.0457 44 44 35.0457 44 24C44 12.9543 35.0457 4 24 4C12.9543 4 4 12.9543 4 24C4 35.0457 12.9543 44 24 44Z" fill="#333333"/>
</svg>
